static/images/bisq-logo.svg

<svg height="112" viewBox="0 0 100 112" width="100" xmlns="http://www.w3.org/2000/svg"><path d="m90.6841537 26.3650415c3.7664345 8.2571833 4.6356117 9.8506748 7.532869 18.252721 1.5934915 5.2150632-1.7383544 13.0376579-15.3554637 6.3739661-9.8506749-4.6356117-16.9489553-7.9674576-11.0095778-15.7900523 2.8972573-3.7664345 6.0842403-7.2431433 9.5609491-10.5749892 3.6215716-3.186983 5.9393775-5.2150631 9.2712234 1.7383544zm-3.3318459 52.730083c7.2431432-7.0982804 17.2386812.8691772 10.2852634 10.2852634-14.1965608 19.2667611-38.678385 26.9444931-60.6975405 19.1218981-22.0191556-7.822595-36.9400307-28.8277101-36.9400307-53.0198086 0-14.4862865 4.78047456-26.6547672 13.9068351-37.5194821 8.8366348-9.85067484 22.0191555-17.81813243 35.0568134-17.9629953 18.252721 0 26.3650415 15.9349152 19.9910754 24.9164128-7.2431433 9.8506749-15.5003266 9.1263605-21.7294298 4.7804746 0 0-8.5469091-6.0842404-11.0095778-8.1123205-3.9112973-3.0421201-8.1123204-3.0421201-9.7058119 1.8832173-2.7523945 8.6917719-4.0561603 14.1965608-6.2291033 22.8883327-1.01404 4.345886-1.4486286 8.8366348-1.5934915 13.3273836 0 8.2571833 3.6215717 16.0797781 9.8506749 21.1499783 4.3458859 4.0561603 8.8366347 7.6777319 13.7619722 10.8647149 3.9112973 2.7523945 8.546909 4.2010231 13.1825207 4.2010231h.4345886c4.6356117-.1448628 9.2712234-1.5934915 13.1825208-4.2010231 6.373966-3.7664345 12.4582064-7.9674576 18.252721-12.6030692zm-51.2814543-10.1404006c-2.6075316-1.0140401-8.4020462-6.0842404-6.6636918-9.8506749.7243143-2.0280801 5.6496517-2.6075315 7.2431432-2.6075315 8.9814977-.1448629 9.4160863 16.079778-.5794514 12.4582064zm16.079778 17.3835438c-1.1589029-1.01404-3.3318459-3.186983-5.2150631-4.9253374-.5794515-.5794515-.5794515-1.4486286-.2897258-2.0280801.4345886-.7243143 1.158903-1.1589029 2.0280801-1.0140401 3.4767088-.1448628 6.9534176-.1448628 10.2852635 0 .8691772 0 1.4486286.5794515 1.7383544 1.158903.2897257.7243143.1448628 1.4486286-.4345886 1.8832172-1.8832173 1.7383544-4.0561603 3.9112974-5.0702003 4.9253374-.4345886.4345886-1.0140401.5794515-1.5934915.5794515-.5794515 0-1.0140401-.1448629-1.4486287-.5794515zm20.425664-17.3835438c-9.9955377 3.6215716-9.705812-12.7479322-.5794514-12.4582064 1.5934915 0 6.373966.5794514 7.2431432 2.6075315 1.8832173 3.9112974-4.0561602 8.9814977-6.6636918 9.8506749z" fill="#25b135"/></svg>

<?xml version="1.0" encoding="UTF-8"?>
<svg width="100px" height="112px" viewBox="0 0 100 112" version="1.1" xmlns="http://www.w3.org/2000/svg" xmlns:xlink="http://www.w3.org/1999/xlink">
    <!-- Generator: Sketch 63.1 (92452) - https://sketch.com -->
    <title>bisq-logo</title>
    <desc>Created with Sketch.</desc>
    <g id="Page-1" stroke="none" stroke-width="1" fill="none" fill-rule="evenodd">
        <g id="bisq-logo" fill="#25B135" fill-rule="nonzero">
            <path d="M90.6841537,26.3650415 C94.4505882,34.6222248 95.3197654,36.2157163 98.2170227,44.6177625 C99.8105142,49.8328257 96.4786683,57.6554204 82.861559,50.9917286 C73.0108841,46.3561169 65.9126037,43.024271 71.8519812,35.2016763 C74.7492385,31.4352418 77.9362215,27.958533 81.4129303,24.6266871 C85.0345019,21.4397041 87.3523078,19.411624 90.6841537,26.3650415 L90.6841537,26.3650415 Z M87.3523078,79.0951245 C94.595451,71.9968441 104.590989,79.9643017 97.6375712,89.3803879 C83.4410104,108.647149 58.9591862,116.324881 36.9400307,108.502286 C14.9208751,100.679691 0,79.6745759 0,55.4824774 C0,40.9961909 4.78047456,28.8277102 13.9068351,17.9629953 C22.7434699,8.11232046 35.9259906,0.144862865 48.9636485,0 C67.2163695,0 75.32869,15.9349152 68.9547239,24.9164128 C61.7115806,34.7670877 53.4543973,34.0427733 47.2252941,29.6968874 C47.2252941,29.6968874 38.678385,23.612647 36.2157163,21.5845669 C32.304419,18.5424468 28.1033959,18.5424468 26.5099044,23.4677842 C23.7575099,32.1595561 22.4537441,37.664345 20.2808011,46.3561169 C19.2667611,50.7020029 18.8321725,55.1927517 18.6873096,59.6835005 C18.6873096,67.9406838 22.3088813,75.7632786 28.5379845,80.8334788 C32.8838704,84.8896391 37.3746192,88.5112107 42.2999567,91.6981937 C46.211254,94.4505882 50.8468657,95.8992168 55.4824774,95.8992168 L55.917066,95.8992168 C60.5526777,95.754354 65.1882894,94.3057253 69.0995868,91.6981937 C75.4735528,87.9317592 81.5577932,83.7307361 87.3523078,79.0951245 L87.3523078,79.0951245 Z M36.0708535,68.9547239 C33.4633219,67.9406838 27.6688073,62.8704835 29.4071617,59.104049 C30.131476,57.0759689 35.0568134,56.4965175 36.6503049,56.4965175 C45.6318026,56.3516546 46.0663912,72.5762955 36.0708535,68.9547239 L36.0708535,68.9547239 Z M52.1506315,86.3382677 C50.9917286,85.3242277 48.8187856,83.1512847 46.9355684,81.4129303 C46.3561169,80.8334788 46.3561169,79.9643017 46.6458426,79.3848502 C47.0804312,78.6605359 47.8047456,78.2259473 48.6739227,78.3708101 C52.1506315,78.2259473 55.6273403,78.2259473 58.9591862,78.3708101 C59.8283634,78.3708101 60.4078148,78.9502616 60.6975406,79.5297131 C60.9872663,80.2540274 60.8424034,80.9783417 60.262952,81.4129303 C58.3797347,83.1512847 56.2067917,85.3242277 55.1927517,86.3382677 C54.7581631,86.7728563 54.1787116,86.9177192 53.5992602,86.9177192 C53.0198087,86.9177192 52.5852201,86.7728563 52.1506315,86.3382677 L52.1506315,86.3382677 Z M72.5762955,68.9547239 C62.5807578,72.5762955 62.8704835,56.2067917 71.9968441,56.4965175 C73.5903356,56.4965175 78.3708101,57.0759689 79.2399873,59.104049 C81.1232046,63.0153464 75.1838271,68.0855467 72.5762955,68.9547239 L72.5762955,68.9547239 Z" id="Combined-Shape"></path>
        </g>
    </g>
</svg>
